X:1
T:Title
%%score 1 2
L:1/8
Q:1/4=90
M:4/4
K:F
V:1 treble nm="Strings 1, Treble"
V:2 bass nm="Strings 1, Bass"
V:1
 z4 z2 z [CF] | [FA]>[FA] [FG]F [FA] [Fc]2 [FA] | [FA]>[CF] [CF][CA] [A,C]3 [A,C] | %3
w: 1.~Is~|there~ no~ balm~ in~ Gil ead,~ and~|no~ phy si cian~ there,~ That~|
 [B,D]>[DF] [DF][B,D] [A,C] [CF]2 [FA] | [FA]>[FA] [FA]F [EG]3 [CF] | %5
w: peo ple~ still~ should~ lan guish~ in~|sick ness~ and~ de spair?~ Is~|
 [FA]>[FA] [FG]F [FA] [Fc]2 [FA] | [FA]>[FG] [FG][Fd] [Fd]3 [Fd] | %7
w: there~ no~ one~ to~ free~ them,~ no~|pow er~ to~ re lease?~ Yes,~|
 [Fc]>[Fc] [Fc][FB] [FA][Fc][Fc][Q:1/4=90]C[Q:1/4=12] | [CF][FA] [EA]>[EG] F3 [Fc] | %9
w: Je sus~ died~ to~ save~ from~ sin,~ from~|sick ness~ and~ dis ease.~ *|
 [Fc]>[FA] [Fc][CA] [Fc] [Fc]2 [Fc] | [Fd]>[Fc] [Fc][FA] [Fc]3 C | %11
w: ||
 [CF]>[CF] [CF][EG] [FA]>[FA] [FA][Q:1/4=90][FA][Q:1/4=12] | [FA]>[FA] [F=B][FG] [Ec]3 [Ec] | %13
w: ||
 [Fc]>[FA] [Fc][CA] [Fc] [Fc]2 [Fc] | [Fd]>[Fc] [Fc][FA] [Fc]3 C | %15
w: ||
 [CF]>[CF] [CF][EG] [FA] [FA]2 [FA] | [FA]>[EG] [EG][EA] [CF]4 |] %17
w: ||
V:2
 z4 z2 z [F,A,] | [F,C]>[F,C] [F,B,][F,A,] [F,C] [F,A,]2 [F,C] | [F,C]>[F,A,] [F,A,]F, F,3 F, | %3
 [B,,F,]>[B,,F,] [B,,F,][B,,F,] F, [F,A,]2 [F,C] | [D,D]>[D,D] [G,=B,][G,B,] [C,C]3 [F,A,] | %5
 [F,C]>[F,C] [F,B,][F,A,] [F,C] [F,A,]2 [F,C] | [D,D]>[D,B,] [D,B,][D,B,] [B,,B,]3 [B,,B,] | %7
 [F,A,]>[F,A,] [F,A,][F,G,] F,[F,A,][F,A,][F,A,] | [A,C]C C>[C,B,] [F,A,]3 [F,A,] | %9
 [F,A,]>[F,C] [F,A,]F, [F,A,] [F,A,]2 [F,A,] | [F,B,]>[F,A,] [F,A,][F,C] [F,A,]3 [F,A,] | %11
 [F,A,]>[F,A,] [A,,C][C,C] [F,C]>[F,C] [F,C][F,C] | [D,D]>[D,D] [G,D][G,=B,] [C,C]3 [C,_B,] | %13
 [F,A,]>[F,C] [F,A,]F, [F,A,] [F,A,]2 [F,A,] | [F,B,]>[F,A,] [F,A,][F,C] [F,A,]3 [F,A,] | %15
 [F,A,]>[F,A,] [A,,C][C,C] [F,C] [F,C]2 [F,C] | [C,C]>[C,B,] [C,B,][C,C] [F,,F,A,]4 |] %17

